X: 4
T: Fasten The Leg In Her
R: jig
M: 6/8
L: 1/8
K: Gmaj
dc|:BGG B/c/BA|GBd gdB|A3 B2A|GBd dBA|
BGG BBA|GBd gab|a3 age|1fdd d2c:|2fdd def||
|:gg2 ef2|ege edB|A3 AGA|GBd dBA|
gg2 ef2|efg fdB|Aaa a2g|1fdd def:|2fdd d2c|


Tune 2838	Setting 16048

